arrow-decision-auto-outline.svg

<svg fill="currentColor" viewBox="0 0 24 24"><path d="M19 15v-3c-.5 0-4.5.16-4.95 4.2 1.56.55 2.38 2.27 1.83 3.83a3.006 3.006 0 0 1-3.83 1.83c-1.55-.56-2.38-2.27-1.83-3.83.28-.86.98-1.53 1.83-1.83A6.75 6.75 0 0 1 19 10V7l4 4zm-5 4a1 1 0 0 0-1-1 1 1 0 0 0-1 1 1 1 0 0 0 1 1 1 1 0 0 0 1-1m-2-7.88c.58-.66 1.25-1.23 2-1.69V5h3l-4-4-4 4h3zM7.2 6h-2L2 15h1.9l.7-2h3.2l.7 2h1.9zm-2.15 5.65L6.2 8l1.15 3.65z"/></svg>

<svg  viewBox="0 0 24 24" fill="currentColor"><path  d="M19,15V12C18.5,12 14.5,12.16 14.05,16.2C15.61,16.75 16.43,18.47 15.88,20.03C15.33,21.59 13.61,22.41 12.05,21.86C10.5,21.3 9.67,19.59 10.22,18.03C10.5,17.17 11.2,16.5 12.05,16.2C12.34,12.61 15.4,9.88 19,10V7L23,11L19,15M14,19A1,1 0 0,0 13,18A1,1 0 0,0 12,19A1,1 0 0,0 13,20A1,1 0 0,0 14,19M12,11.12C12.58,10.46 13.25,9.89 14,9.43V5H17L13,1L9,5H12V11.12M7.2,6H5.2L2,15H3.9L4.6,13H7.8L8.5,15H10.4L7.2,6M5.05,11.65L6.2,8L7.35,11.65H5.05Z"/></svg>
